img/payment/img2.svg

<svg width="64" height="21" viewBox="0 0 64 21" fill="none" xmlns="http://www.w3.org/2000/svg">
<path d="M27.922 20.2679H22.8065L26.0235 0.543945H31.139L27.922 20.2679Z" fill="white"/>
<path d="M18.4819 0.543945L13.5773 14.0976L12.9972 11.197L11.2568 2.33703C11.2568 2.33703 11.0459 0.543945 8.83088 0.543945H0.761989L0.656513 0.860372C0.656513 0.860372 3.13519 1.38775 6.03577 3.1281L10.5185 20.2679H15.845L24.0194 0.543945H18.4819Z" fill="white"/>
<path d="M58.8793 20.2679H63.573L59.4594 0.543945H55.3459C53.4473 0.543945 52.9727 2.0206 52.9727 2.0206L45.3257 20.2679H50.6522L51.7069 17.3146H58.2464L58.8793 20.2679ZM53.2363 13.2538L55.926 5.87047L57.4554 13.2538H53.2363Z" fill="white"/>
<path d="M45.6946 5.29037L46.433 1.07135C46.433 1.07135 44.1652 0.227539 41.792 0.227539C39.2606 0.227539 33.1958 1.33503 33.1958 6.76703C33.1958 11.8826 40.3154 11.9353 40.3154 14.625C40.3154 17.3146 33.9341 16.84 31.8246 15.1523L31.0863 19.5823C31.0863 19.5823 33.354 20.6898 36.8874 20.6898C40.3681 20.6898 45.6946 18.8967 45.6946 13.9394C45.6946 8.82381 38.5223 8.34917 38.5223 6.08144C38.5223 3.76098 43.5324 4.0774 45.6946 5.29037Z" fill="white"/>
</svg>

<svg width="64" height="21" fill="none" xmlns="http://www.w3.org/2000/svg"><path d="M27.922 20.268h-5.116L26.023.544h5.116l-3.217 19.724zM18.482.544l-4.905 13.554-.58-2.901-1.74-8.86S11.046.544 8.83.544H.762L.657.86s2.478.528 5.379 2.268l4.482 17.14h5.327L24.019.544h-5.537zM58.88 20.268h4.693L59.459.544h-4.113c-1.899 0-2.373 1.477-2.373 1.477l-7.647 18.247h5.326l1.055-2.953h6.54l.632 2.953zm-5.644-7.014l2.69-7.384 1.53 7.384h-4.22zM45.695 5.29l.738-4.219S44.165.228 41.792.228c-2.531 0-8.596 1.107-8.596 6.539 0 5.116 7.12 5.168 7.12 7.858 0 2.69-6.382 2.215-8.491.527l-.739 4.43s2.268 1.108 5.801 1.108c3.481 0 8.808-1.793 8.808-6.75 0-5.116-7.173-5.59-7.173-7.859 0-2.32 5.01-2.004 7.173-.79z" fill="#fff"/></svg>
